**kern
*staff1
!!pagebreak:original
*I"P1
*clefG2
*k[f#c#g#d#]
*M6/8
16ee\LL
16ff#\
16gg#\JJ
=1
*M3/4
4bb\
4.bb\
8aa\
=2
4.bb\
8ee\L
8ff#\
8gg#\J
=3
4aa\
4.aa\
8gg#\
=4
4.ff#\
8dd#\L
8ee\
8ff#\J
=5
4gg#\
4.gg#\
8ff#\
=6
4.gg#\
8cc#\L
8dd#\
8ee\J
=7
4ff#\
4.ff#\
8ee\
=8
4.ee\
=
*-
